X:1
T:Blessèd Are They That Believe
T:William Howard Doane
T:Blessèd Are They That Believe
T:Public Domain
T:Public Domain
T:Public Domain
C:William Howard Doane
Z:Public Domain
%%score ( 1 2 ) 3
L:1/8
M:6/8
K:Bb
V:1 treble 
V:2 treble 
V:3 bass 
V:1
 [Fd][Ec][DB] [Fd][Fc][FB] | [GB][FA][EG] [DF]3 | [DF][DF][DF] [FB][FA][FB] | [Fc]3- [Fc]2 z | %4
w: 1.~Come to the fount- ain of|mer- cy and live,|Come, and a par- don re-|ceive; *|
w: 2.~Hap- py the na- tion whose|God is the Lord;|Hear- ing in meek- ness and|love *|
w: 3.~Look un- to Je- sus, ye|re- gions of earth,|Vic- tor of death and the|grave, *|
 [Fd][Ec][DB] [Fd][Fc][FB] | [GB][FA][EG] [DF]3 | [EG][EG][EG] [EA][EG][EA] | [DB]3- [DB]2 z | %8
w: Drink of the wa- ter that|Je- sus will give,|Free- ly to those that be-|lieve; *|
w: Coun- sels of wis- dom and|truth in His Word,|Look- ing for com- fort a-|bove; *|
w: Though He was hum- ble, and|low- ly His birth|He is the might- y to|save. *|
 [FA][FA][FA] [FA][FA][FA] | [FA]3 [Fc]3 | [=Ec][EB][EG] [Ec][EB][EG] | [F-c]3 [FA]3 | %12
w: Wear- y and bur- dened with|sor- row,|Sweet is the mes- sage to|thee, *|
w: He is their Rock and Sal-|va- tion,|He is their Strength and their|Song, *|
w: Why should we wan- der in|dark- ness?|Why to the world should we|cling? *|
 [FA][FA][FA] [FA][FA][FA] | [FA]3 [Fc]3 | [=Ec][EB][EG] [Ec][EB][EG] | F6 || %16
w: Learn of the meek and the|low- ly,|Come, hea- vy la- den to|Me.|
w: On- ward from glo- ry to|glo- ry,|Lead- ing them gent- ly a-|long.|
w: Hope, like a bird, is be-|fore us,|Plum- ing her beau- ti- ful|wing.|
"^Refrain" [DF][Fd][Fd] [Ec][EB][EG] | [DF]3 [DB]3 | [Ec][Ec][Ec] [Ec][DB][Ec] | [Fd]3 [DB]2 z | %20
w: ||||
w: to the clear flow- ing riv-|er, Drink|of its wa- ters for- ev-|er, Hung-|
w: ||||
 [DF][Fd][Fd] [Fd][Ec][FB] | [EB]3 [EG]3 | [EF][EG][EF] [EF][EG][EA] | [DB]3- [DB]2 z |] %24
w: ||||
w: ry and thirst- y, O! ne-|ver, Bless-|èd are they that be- lieve!||
w: ||||
V:2
 x6 | x6 | x6 | x6 | x6 | x6 | x6 | x6 | x6 | x6 | x6 | x6 | x6 | x6 | x6 | F6 || x6 | x6 | x6 | %19
w: |||||||||||||||||||
w: |||||||||||||||Come||||
 x6 | x6 | x6 | x6 | x6 |] %24
w: |||||
w: |||||
V:3
 [B,,F,][B,,F,][B,,F,] [B,,F,][C,A,][C,B,] | [E,B,E][E,B,][E,B,] [B,,B,]3 | %2
 [B,,B,][B,,B,][B,,B,] [C,B,][C,C][D,B,] | [F,A,]3- [F,A,]2 z | %4
 [B,,F,][B,,F,][B,,F,] [B,,F,][C,A,][D,B,] | [E,B,E][E,B,][E,B,] [B,,B,]3 | %6
 [E,B,][E,B,][E,B,] [F,C][F,C][F,C] | [B,,B,]3- [B,,B,]2 z | [F,C][F,C][F,C] [F,C][F,C][F,C] | %9
 [F,C]3 [F,A,]3 | [C,G,][C,G,][C,C] [C,G,][C,G,][C,B,] | [F,-A,]3 [F,C]3 | %12
 [F,C][F,C][F,C] [F,C][F,C][F,C] | [F,C]3 [F,A,]3 | [C,G,][C,G,][C,C] [C,G,][C,G,][C,B,] | %15
 [F,A,]6 || [B,,F,][B,,B,][B,,B,] [E,G,][E,G,][E,B,] | [B,,B,]3 [B,,B,]3 | %18
 [F,A,][F,A,][F,A,] [F,A,][F,B,][F,A,] | [B,,B,]3 [B,,B,]2 z | %20
 [B,,B,][B,,B,][B,,B,] [B,,B,][C,A,][D,_A,] | [E,G,]3 [E,B,]3 | %22
 [F,A,][F,A,][F,A,] [F,A,][F,C][F,C] | [B,,B,]3- [B,,B,]2 z |] %24

